packages/tokens/icons/wallet/size32Px.svg

<svg viewBox="0 0 32 32" fill="none" xmlns="http://www.w3.org/2000/svg" width="1em" height="1em"><path d="M28.5 9.5V8.5C28.5 7.39543 27.6046 6.5 26.5 6.5L4.5 6.5C3.39543 6.5 2.5 7.39543 2.5 8.5L2.5 23.5C2.5 24.6046 3.39543 25.5 4.5 25.5H26.5C27.6046 25.5 28.5 24.6046 28.5 23.5V21.5" stroke="currentColor" stroke-linecap="round"/><path d="M21.5 15.5C21.5 13.8431 22.8431 12.5 24.5 12.5H29.1818C29.3575 12.5 29.5 12.6425 29.5 12.8182V18.1818C29.5 18.3575 29.3575 18.5 29.1818 18.5H24.5C22.8431 18.5 21.5 17.1569 21.5 15.5Z" stroke="currentColor"/><line x1="24.5" y1="15.5" x2="25.5" y2="15.5" stroke="currentColor" stroke-linecap="round"/></svg>

<svg xmlns="http://www.w3.org/2000/svg" fill="none" viewBox="0 0 32 32" width="1em" height="1em"><path stroke="currentColor" stroke-linecap="round" d="M28.5 9.5v-1a2 2 0 0 0-2-2h-22a2 2 0 0 0-2 2v15a2 2 0 0 0 2 2h22a2 2 0 0 0 2-2v-2"/><path stroke="currentColor" d="M21.5 15.5a3 3 0 0 1 3-3h4.682c.176 0 .318.143.318.318v5.364a.318.318 0 0 1-.318.318H24.5a3 3 0 0 1-3-3Z"/><path stroke="currentColor" stroke-linecap="round" d="M24.5 15.5h1"/></svg>
